X: 10763
T: 3. SCITUATE REEL
R: reel
B: K\"ohler's Violin Repository, v.1, 1885 p.76 #3
F: http://www.archive.org/details/klersviolinrepos01edin
Z: 2012 John Chambers <jc:trillian.mit.edu>
M: C|
L: 1/8
K: G
|:\
(ga)bg e2ge | d2ge (dB)GB | (3AAA A2 z2 u(AB) | (cB)AB (cd)ef |\
(ga)bg e2ge | d2ge (dB)GB | (3AAA A2 z2 u(AB) | cdef g2z2 :|
|:\
z>ug g4 (gf) | (ga)ba (gd)Bd | z>ua a4 (a^g) | (a^g)ab (a=g)ef |\
g2bg f2af | e2fg (ed)Bg |(3AAA A2 z2 u(AB) | (cB)AB (cd)ef :|

%%sep 2 1 500

